X:0395
T:Sir John Malcolm.
M:C
L:1/8
Q:1/2=100
I: || ||
Z:Jack Campin * www.campin.me.uk * 2009
K:B Minor
d|A>Bde fdef | A/A/A AF  A2Ad|A>Bde  fdef|B/B/B dA B2B||
b|a>baf e>def|TA2    A>F A2Af|a>baf Tedef|B/B/B dA B2B
b|abfa Te>def|TA2    AF  A2Ad|ABde   fdef|dBdA     B2B|]
<end>
<start>
